X: 20684
T: John's Tune
R: reel
M: 4/4
K: Gmajor
EF|GGEG zGEG|DEGA BGBd|gfed egdB|AGAB AGEF|
GGEG zGEG|DEGA BGBd|gfed egdB|AGAB G2:|
ef|gfed edBA|(3Bcd BA Bdef|gfed edBd|eaag fdef|
gfed efge|dBAB GEDE|GABd (3efg dB|AGAB G2:|

